src/pos-icons/presentation.svg

<svg height="24" viewBox="0 0 24 24" width="24" xmlns="http://www.w3.org/2000/svg"><path d="m2 3h8a2 2 0 0 1 2-2 2 2 0 0 1 2 2h8v2h-1v11h-5.75l1.75 6h-2l-1.75-6h-2.5l-1.75 6h-2l1.75-6h-5.75v-11h-1zm3 2v9h14v-9z"/></svg>

<?xml version="1.0" encoding="UTF-8"?><!DOCTYPE svg PUBLIC "-//W3C//DTD SVG 1.1//EN" "http://www.w3.org/Graphics/SVG/1.1/DTD/svg11.dtd"><svg xmlns="http://www.w3.org/2000/svg" xmlns:xlink="http://www.w3.org/1999/xlink" version="1.1" id="mdi-presentation" width="24" height="24" viewBox="0 0 24 24"><path d="M2,3H10A2,2 0 0,1 12,1A2,2 0 0,1 14,3H22V5H21V16H15.25L17,22H15L13.25,16H10.75L9,22H7L8.75,16H3V5H2V3M5,5V14H19V5H5Z" /></svg>
